X:1
T: the Peeking Pup Waltz
C:Sharon Shannon
Z:Jerome S. Colburn <jscolbur@prairienet.org> irtrad-l 2000-3=14
M:3/4
K:G
GE | D3 G G2 | G3 F G2 | A3 B c2 | d3 d c2 |\
     B3 G G2 | B3 G G2 | A3 B c2 | A3 G E2 |\
     D3 G G2 | G3 F G2 | A3 B c2 | d3 d c2 |\
     B3 G G2 | A3 B A2 | G6      | G4   ::\
de | g3 d d2 | g3 d d2 | c3 B c2 | B3 G G2 |\
     g3 d d2 | g3 d d2 | c3 B c2 | A4   GE |\
     D3 G G2 | G3 F G2 | A3 B c2 | d3 d c2 |\
     B3 G G2 | A3 B A2 | G6      | G4   :|
